X:1
T:The Willing Conscript
M:2/2
L:1/4
K:F
 F| F G A B| c f d B| A A G G| F2 z F| F G A B| c f d B| A3/2 A/2 G G|\
 F2 z d/2d/2| d d d f| c/2 A3/2 c c| B/2 B3/2 A/2 A3/2| G2- c/2c/2 c|\
 F G A B| c/2 f3/2 d B| A/2 A3/2 G3/2 G/2| F3||

